X: 3272
T: Captain Macduff's Reel.
C: D.D.
%R: reel
B: Niel Gow & Sons "Complete Repository" v.3 p.27 #2
Z: 2021 John Chambers <jc:trillian.mit.edu>
M: C|
L: 1/8
K: A
% - - - - - - - - - -
V: 1 staves=2
a |\
ecBc A2EF | Acec B/B/B TB>a | ecBc A2EF | Afec A/A/A A :| d | c(ee)>f ecae | (cee)>f ecBd |
ce-e>c acef | ecTBc A/A/A A>d || ce-e>f ecae | ce-e>f ecBd | ce-e>a faef | ecBc A/A/A A |]
% - - - - - - - - - -
V: 2 clef=bass middle=d
z | a2a2 a2a2 | a2a2 b2b2 | a2a2 a2a2 | d2e2 A2A :| z | a2a2 a2a2 | a2c'2 e'2e2 |
a2a2 a2a2 | e2e2 A2A2 || a2a2 a2a2 | a2c'2 e'2e2 | a2c2 d2c2 | e2E2 A2A |]


